src/svg/default.svg

<?xml version="1.0" encoding="UTF-8" standalone="no"?>
<svg
   xmlns:dc="http://purl.org/dc/elements/1.1/"
   xmlns:cc="http://creativecommons.org/ns#"
   xmlns:rdf="http://www.w3.org/1999/02/22-rdf-syntax-ns#"
   xmlns:svg="http://www.w3.org/2000/svg"
   xmlns="http://www.w3.org/2000/svg"
   xmlns:sodipodi="http://sodipodi.sourceforge.net/DTD/sodipodi-0.dtd"
   xmlns:inkscape="http://www.inkscape.org/namespaces/inkscape"
   width="32"
   height="32"
   version="1.1"
   viewBox="0 0 32 32"
   id="svg19"
   sodipodi:docname="default.svg"
   inkscape:version="0.92.4 5da689c313, 2019-01-14">
  <metadata
     id="metadata23">
    <rdf:RDF>
      <cc:Work
         rdf:about="">
        <dc:format>image/svg+xml</dc:format>
        <dc:type
           rdf:resource="http://purl.org/dc/dcmitype/StillImage" />
      </cc:Work>
    </rdf:RDF>
  </metadata>
  <sodipodi:namedview
     pagecolor="#ffffff"
     bordercolor="#666666"
     borderopacity="1"
     objecttolerance="10"
     gridtolerance="10"
     guidetolerance="10"
     inkscape:pageopacity="0"
     inkscape:pageshadow="2"
     inkscape:window-width="1366"
     inkscape:window-height="696"
     id="namedview21"
     showgrid="false"
     inkscape:zoom="7.375"
     inkscape:cx="-1.1525424"
     inkscape:cy="16"
     inkscape:window-x="0"
     inkscape:window-y="36"
     inkscape:window-maximized="1"
     inkscape:current-layer="svg19" />
  <defs
     id="defs5">
    <filter
       id="b"
       x="-.16181"
       y="-.095361"
       width="1.3236"
       height="1.1907"
       color-interpolation-filters="sRGB">
      <feGaussianBlur
         stdDeviation="0.62797713"
         id="feGaussianBlur2" />
    </filter>
    <filter
       inkscape:collect="always"
       style="color-interpolation-filters:sRGB"
       id="filter4666"
       x="-0.16854379"
       width="1.3370876"
       y="-0.093166336"
       height="1.1863327">
      <feGaussianBlur
         inkscape:collect="always"
         stdDeviation="0.75537022"
         id="feGaussianBlur4668" />
    </filter>
  </defs>
  <g
     id="g4682"
     transform="translate(-31,1.9999995)">
    <path
       style="color:#000000;font-style:normal;font-variant:normal;font-weight:normal;font-stretch:normal;font-size:medium;line-height:normal;font-family:sans-serif;font-variant-ligatures:normal;font-variant-position:normal;font-variant-caps:normal;font-variant-numeric:normal;font-variant-alternates:normal;font-feature-settings:normal;text-indent:0;text-align:start;text-decoration:none;text-decoration-line:none;text-decoration-style:solid;text-decoration-color:#000000;letter-spacing:normal;word-spacing:normal;text-transform:none;writing-mode:lr-tb;direction:ltr;text-orientation:mixed;dominant-baseline:auto;baseline-shift:baseline;text-anchor:start;white-space:normal;shape-padding:0;clip-rule:nonzero;display:inline;overflow:visible;visibility:visible;opacity:0.35;isolation:auto;mix-blend-mode:normal;color-interpolation:sRGB;color-interpolation-filters:linearRGB;solid-color:#000000;solid-opacity:1;vector-effect:none;fill:#000000;fill-opacity:1;fill-rule:nonzero;stroke:none;stroke-width:2;stroke-linecap:round;stroke-linejoin:round;stroke-miterlimit:4;stroke-dasharray:none;stroke-dashoffset:0;stroke-opacity:1;paint-order:stroke fill markers;filter:url(#filter4666);color-rendering:auto;image-rendering:auto;shape-rendering:auto;text-rendering:auto;enable-background:accumulate"
       d="m 36.378906,3.070312 a 1.0001,1.0001 0 0 0 -1.033203,1 v 13 a 1.0001,1.0001 0 0 0 0.449219,0.833984 l 6.757812,4.458985 a 1.0001,1.0001 0 0 0 1.519531,-0.587891 l 1.998047,-7.798828 A 1.0001,1.0001 0 0 0 45.84375,13.05664 L 37.085937,3.398437 A 1.0001,1.0001 0 0 0 36.378906,3.070312 Z M 37.345703,6.6621089 44,14 42.482422,19.919921 37.345703,16.53125 Z"
       id="path4556"
       inkscape:connector-curvature="0" />
    <path
       inkscape:connector-curvature="0"
       id="path4552"
       d="M 36.033203,2 A 1.0001,1.0001 0 0 0 35,3 v 13 a 1.0001,1.0001 0 0 0 0.449219,0.833984 l 6.757812,4.458985 a 1.0001,1.0001 0 0 0 1.519531,-0.587891 L 45.724609,12.90625 A 1.0001,1.0001 0 0 0 45.498047,11.986328 L 36.740234,2.328125 A 1.0001,1.0001 0 0 0 36.033203,2 Z M 37,5.5917969 43.654297,12.929688 42.136719,18.849609 37,15.460938 Z"
       style="color:#000000;font-style:normal;font-variant:normal;font-weight:normal;font-stretch:normal;font-size:medium;line-height:normal;font-family:sans-serif;font-variant-ligatures:normal;font-variant-position:normal;font-variant-caps:normal;font-variant-numeric:normal;font-variant-alternates:normal;font-feature-settings:normal;text-indent:0;text-align:start;text-decoration:none;text-decoration-line:none;text-decoration-style:solid;text-decoration-color:#000000;letter-spacing:normal;word-spacing:normal;text-transform:none;writing-mode:lr-tb;direction:ltr;text-orientation:mixed;dominant-baseline:auto;baseline-shift:baseline;text-anchor:start;white-space:normal;shape-padding:0;clip-rule:nonzero;display:inline;overflow:visible;visibility:visible;opacity:1;isolation:auto;mix-blend-mode:normal;color-interpolation:sRGB;color-interpolation-filters:linearRGB;solid-color:#000000;solid-opacity:1;vector-effect:none;fill:#ffffff;fill-opacity:1;fill-rule:nonzero;stroke:none;stroke-width:2;stroke-linecap:round;stroke-linejoin:round;stroke-miterlimit:4;stroke-dasharray:none;stroke-dashoffset:0;stroke-opacity:1;paint-order:stroke fill markers;color-rendering:auto;image-rendering:auto;shape-rendering:auto;text-rendering:auto;enable-background:accumulate" />
    <path
       sodipodi:nodetypes="ccccc"
       inkscape:connector-curvature="0"
       id="rect4546"
       d="m 36,3 v 13 l 6.757419,4.457263 1.999033,-7.799883 z"
       style="opacity:1;fill:#333333;fill-opacity:1;stroke:none;stroke-width:2.23740506;stroke-linecap:round;stroke-linejoin:round;stroke-miterlimit:4;stroke-dasharray:none;stroke-opacity:1;paint-order:stroke fill markers" />
  </g>
</svg>

<svg xmlns="http://www.w3.org/2000/svg" width="32" height="32" viewBox="0 0 32 32">
  <defs>
    <filter style="color-interpolation-filters:sRGB" id="a" x="-.169" width="1.337" y="-.093" height="1.186">
      <feGaussianBlur stdDeviation=".755"/>
    </filter>
  </defs>
  <path style="color:#000;font-style:normal;font-variant:normal;font-weight:400;font-stretch:normal;font-size:medium;line-height:normal;font-family:sans-serif;font-variant-ligatures:normal;font-variant-position:normal;font-variant-caps:normal;font-variant-numeric:normal;font-variant-alternates:normal;font-feature-settings:normal;text-indent:0;text-align:start;text-decoration:none;text-decoration-line:none;text-decoration-style:solid;text-decoration-color:#000;letter-spacing:normal;word-spacing:normal;text-transform:none;writing-mode:lr-tb;direction:ltr;text-orientation:mixed;dominant-baseline:auto;baseline-shift:baseline;text-anchor:start;white-space:normal;shape-padding:0;clip-rule:nonzero;display:inline;overflow:visible;visibility:visible;opacity:.35;isolation:auto;mix-blend-mode:normal;color-interpolation:sRGB;color-interpolation-filters:linearRGB;solid-color:#000;solid-opacity:1;vector-effect:none;fill:#000;fill-opacity:1;fill-rule:nonzero;stroke:none;stroke-width:2;stroke-linecap:round;stroke-linejoin:round;stroke-miterlimit:4;stroke-dasharray:none;stroke-dashoffset:0;stroke-opacity:1;paint-order:stroke fill markers;filter:url(#a);color-rendering:auto;image-rendering:auto;shape-rendering:auto;text-rendering:auto;enable-background:accumulate" d="M36.379 3.07a1 1 0 0 0-1.033 1v13a1 1 0 0 0 .449.834l6.758 4.46a1 1 0 0 0 1.52-.589l1.997-7.798a1 1 0 0 0-.226-.92l-8.758-9.659a1 1 0 0 0-.707-.328m.967 3.592L44 14l-1.518 5.92-5.136-3.389Z" transform="translate(-31 2)"/>
  <path d="M36.033 2A1 1 0 0 0 35 3v13a1 1 0 0 0 .45.834l6.757 4.459a1 1 0 0 0 1.52-.588l1.998-7.799a1 1 0 0 0-.227-.92L36.74 2.328A1 1 0 0 0 36.033 2M37 5.592l6.654 7.338-1.517 5.92L37 15.46Z" style="color:#000;font-style:normal;font-variant:normal;font-weight:400;font-stretch:normal;font-size:medium;line-height:normal;font-family:sans-serif;font-variant-ligatures:normal;font-variant-position:normal;font-variant-caps:normal;font-variant-numeric:normal;font-variant-alternates:normal;font-feature-settings:normal;text-indent:0;text-align:start;text-decoration:none;text-decoration-line:none;text-decoration-style:solid;text-decoration-color:#000;letter-spacing:normal;word-spacing:normal;text-transform:none;writing-mode:lr-tb;direction:ltr;text-orientation:mixed;dominant-baseline:auto;baseline-shift:baseline;text-anchor:start;white-space:normal;shape-padding:0;clip-rule:nonzero;display:inline;overflow:visible;visibility:visible;opacity:1;isolation:auto;mix-blend-mode:normal;color-interpolation:sRGB;color-interpolation-filters:linearRGB;solid-color:#000;solid-opacity:1;vector-effect:none;fill:#d3c6aa;fill-opacity:1;fill-rule:nonzero;stroke:none;stroke-width:2;stroke-linecap:round;stroke-linejoin:round;stroke-miterlimit:4;stroke-dasharray:none;stroke-dashoffset:0;stroke-opacity:1;paint-order:stroke fill markers;color-rendering:auto;image-rendering:auto;shape-rendering:auto;text-rendering:auto;enable-background:accumulate" transform="translate(-31 2)"/>
  <path d="M36 3v13l6.757 4.457 2-7.8z" style="opacity:1;fill:#272e33;fill-opacity:1;stroke:none;stroke-width:2.23740506;stroke-linecap:round;stroke-linejoin:round;stroke-miterlimit:4;stroke-dasharray:none;stroke-opacity:1;paint-order:stroke fill markers" transform="translate(-31 2)"/>
</svg>
